X: 298
%
U:~=!turn!
T: Lady Georgina Gordon's Strathspey
C:Marshall
O:Scotland
B:Keith Norman MacDonald : "The Skye collection of the best reels & strathspeys extant" : 1887
Z:Ralph Palmer
R:Strathspey
M:C
L:1/8
K:F
C | F/F/F (.F>.F) A>FA<c | d<Tfc>A {/A}G2 (GA) | FF/F/ (.F.F) A>FA<c | d<fTc>A {/A}F2 [1 F :| [2 F2 |: f>g{fg}ag a/g/f/d/ cf | d<gTc>A {/A}G2 G2 |
Tf>gag a/g/f/d/ cf | d>fTc>A ~AFF :: !f!CFA,F CFBd | TcAFA ~G2 G2 | CFA,F CFBd | TcAGA {/A}F2 ~F2 :| fg{fg}ag a/g/f/d/ cf |
~c>df<a g2 ~g2 | fg{fg}ag a/g/f/d/ cf | d<fTc>A {/A}F2 ~F2 | fg{fg}ag a/g/f/d/ cf | c>df<a g2 ~g2 | (b/a/)g/f/ b/g/f/e/ f>cd<f | Tc>BTA>G {/G}~F2 F |]


